resources/icons/16px/intelligence.svg

<svg width="16" height="16" viewBox="0 0 16 16" fill="none" xmlns="http://www.w3.org/2000/svg">
<path fill-rule="evenodd" clip-rule="evenodd" d="M8 7C7.45 7 7 7.45 7 8C7 8.55 7.45 9 8 9C8.55 9 9 8.55 9 8C9 7.45 8.54 7 8 7ZM12.9875 7.97596V7.93389C12.975 7.84975 12.9375 7.77764 12.8813 7.71754C12.5626 7.31488 12.1815 6.96029 11.7941 6.63576C10.9631 5.93261 10.0134 5.34364 8.97001 5.10926C8.36395 4.97103 7.75164 4.96502 7.15183 5.08522C6.5895 5.19339 6.05842 5.40975 5.55858 5.68019C4.77757 6.10689 4.05904 6.68985 3.43424 7.34492C3.32177 7.46512 3.20931 7.59133 3.10309 7.72355C2.96564 7.89783 2.96564 8.10818 3.10309 8.28246C3.42174 8.68512 3.80287 9.03971 4.19025 9.36424C5.02124 10.0674 5.97095 10.6564 7.01437 10.8907C7.62043 11.029 8.23274 11.035 8.84505 10.9148C9.40112 10.8066 9.93221 10.5903 10.4383 10.3198C11.2193 9.89311 11.9378 9.31015 12.5564 8.65508C12.6689 8.53488 12.7876 8.40867 12.8938 8.27645C12.95 8.21636 12.9875 8.13823 13 8.0601V8C12.9875 7.98798 12.9875 7.98197 12.9875 7.97596ZM8 10C6.89333 10 6 9.10667 6 8C6 6.89333 6.89333 6 8 6C9.10667 6 10 6.89333 10 8C10 9.10667 9.10667 10 8 10ZM7 1C7 0.447715 6.55228 0 6 0H1C0.447715 0 0 0.447715 0 1V6C0 6.55228 0.447715 7 1 7C1.55228 7 2 6.55228 2 6V2H6C6.55228 2 7 1.55228 7 1ZM9 1C9 0.447715 9.44771 0 10 0H15C15.5523 0 16 0.447715 16 1V6C16 6.55228 15.5523 7 15 7C14.4477 7 14 6.55228 14 6V2H10C9.44771 2 9 1.55228 9 1ZM9 15C9 15.5523 9.44771 16 10 16H15C15.5523 16 16 15.5523 16 15V10C16 9.44772 15.5523 9 15 9C14.4477 9 14 9.44772 14 10V14H10C9.44771 14 9 14.4477 9 15ZM7 15C7 15.5523 6.55228 16 6 16H1C0.447715 16 0 15.5523 0 15V10C0 9.44772 0.447715 9 1 9C1.55228 9 2 9.44772 2 10V14H6C6.55228 14 7 14.4477 7 15Z" fill="#5F6B7C"/>
</svg>

<svg xmlns="http://www.w3.org/2000/svg" viewBox="0 0 16 16">
  <path d="M8 7c-.55 0-1 .45-1 1s.45 1 1 1 1-.45 1-1-.46-1-1-1m4.988.976v-.042a.4.4 0 0 0-.107-.216 7.6 7.6 0 0 0-1.087-1.082c-.83-.703-1.78-1.292-2.824-1.527a4.3 4.3 0 0 0-1.818-.024 5.6 5.6 0 0 0-1.593.595c-.781.427-1.5 1.01-2.125 1.665-.112.12-.225.246-.33.379a.43.43 0 0 0 0 .558c.318.403.699.758 1.086 1.082.831.703 1.78 1.292 2.824 1.527a4.4 4.4 0 0 0 1.831.024c.556-.108 1.087-.325 1.593-.595a8.7 8.7 0 0 0 2.118-1.665c.113-.12.232-.246.338-.379A.4.4 0 0 0 13 8.06V8c-.012-.012-.012-.018-.012-.024M8 10c-1.107 0-2-.893-2-2s.893-2 2-2 2 .893 2 2-.893 2-2 2M7 1a1 1 0 0 0-1-1H1a1 1 0 0 0-1 1v5a1 1 0 0 0 2 0V2h4a1 1 0 0 0 1-1m2 0a1 1 0 0 1 1-1h5a1 1 0 0 1 1 1v5a1 1 0 1 1-2 0V2h-4a1 1 0 0 1-1-1m0 14a1 1 0 0 0 1 1h5a1 1 0 0 0 1-1v-5a1 1 0 1 0-2 0v4h-4a1 1 0 0 0-1 1m-2 0a1 1 0 0 1-1 1H1a1 1 0 0 1-1-1v-5a1 1 0 0 1 2 0v4h4a1 1 0 0 1 1 1"/>
</svg>
